X: 2
T: Gan Ainm
M: 4/4
L: 1/8
R: reel
K: Dmaj
|: GAGF D2 A2 | G2 F2 D2 A2 | GAGF D2 AG | F2 D2 A4 :|
|: D2 EF E2 A2 | G2 FE FGFE | D2 EF E2 A2 | GFEF D4 :|
